X: 35
T:Ingonish
M:6/8
L:1/8
R:Jig
K:EDor
"Em"Bee efg|"D"fef dBA|"Em"Bee efg|"D"fdc d2 A|"Em"Bee efg|!
"D"fef dBA|"Em"B2B Bcd|"D"AFD "Em"E3:||:"Em"BEE BEE|"D"FEF DFA|!
"Em"BEE BEE|"D"FED "Em"E3|"Em"BEE BEE|"D"FEF DFA|"Em"B2B Bcd|"D"AFD "Em
"E3:||
